X:61
T:Dame mon cuer
C:Guillaume de Machaut
O:d. 1377
M:3/4
L:1/4
K:Am
%%continueall 1
%%staves [1 2]
V:1
Bc2 | e/d/ec | d/c_B/ A | Gz2 |
FEF | GA2 | A>DE | Fz/G/A |
_BA2 | Gz2 | f/e/fd | ^c>Bc |
d>AB | c/B/cA | Bc2 | e/d/ec |
ccG | G>A_B | c/_BA/G | F3 |
G>AB | cz/e/d | d/cd/B | cz/d/e |
f/e/fd | cz/_B/A | B3/c3/ | A3 :|
V:2
zF2 | C3 | F3 | C3 |
c>dc | BA2 | zG2 | F/E/FD |
z^F2 | G3 | D3 | E3 |
D3 | C3 | zF2 | C3 |
F2E | zD2 | zD2 | F3 |
ED2 | C>GF | ED2 | CG2 |
F3 | F>GA | G>FG | A3 :|




%%header "$P0	 $IR 	$P1"
%%footer $D - Éditions Galouvielle - 2009 - À usage librement privé dans le cadre familial

